src/assets/ArtworkImg.svg

<svg width="570" height="570" viewBox="0 0 570 570" fill="none" xmlns="http://www.w3.org/2000/svg">
<path opacity="0.102307" fill-rule="evenodd" clip-rule="evenodd" d="M314.542 529.122C289.916 551.295 251.978 549.307 229.805 524.681L40.4316 314.361C18.2585 289.735 20.2467 251.797 44.8724 229.624L255.193 40.2509C279.818 18.0779 317.756 20.0661 339.929 44.6917L529.303 255.012C551.476 279.638 549.488 317.576 524.862 339.749L314.542 529.122Z" fill="#2196F3"/>
<path opacity="0.0535017" fill-rule="evenodd" clip-rule="evenodd" d="M196.694 271.242C181.508 284.916 158.113 283.69 144.44 268.504L53.7608 167.794C40.0874 152.609 41.3135 129.214 56.4993 115.54L157.209 24.8609C172.395 11.1875 195.79 12.4136 209.463 27.5994L300.142 128.309C313.816 143.495 312.59 166.89 297.404 180.563L196.694 271.242Z" fill="#00BCD4"/>
</svg>

<svg width="570" height="570" fill="none" xmlns="http://www.w3.org/2000/svg"><path opacity=".102" fill-rule="evenodd" clip-rule="evenodd" d="M314.542 529.122c-24.626 22.173-62.564 20.185-84.737-4.441L40.432 314.361c-22.174-24.626-20.185-62.564 4.44-84.737L255.193 40.251c24.625-22.173 62.563-20.185 84.736 4.44l189.374 210.321c22.173 24.626 20.185 62.564-4.441 84.737l-210.32 189.373z" fill="#2196F3"/><path opacity=".054" fill-rule="evenodd" clip-rule="evenodd" d="M196.694 271.242c-15.186 13.674-38.581 12.448-52.254-2.738l-90.68-100.71c-13.673-15.185-12.447-38.58 2.74-52.254l100.709-90.68c15.186-13.672 38.581-12.446 52.254 2.74l90.679 100.709c13.674 15.186 12.448 38.581-2.738 52.254l-100.71 90.679z" fill="#00BCD4"/></svg>
